packages/ui-icons/src/Basic/24/Mobile-cash-desk_24.svg

<svg xmlns="http://www.w3.org/2000/svg" viewBox="0 0 32 32"><path d="M25.47 3H12a4 4 0 0 0-4 4v9H5v12h22V16h-3V8h5V6.5A3.54 3.54 0 0 0 25.47 3ZM10 7a2 2 0 0 1 2-2h10.33A3.34 3.34 0 0 0 22 6.44a2.91 2.91 0 0 0 0 .48V20H10Zm15 11v8H7v-8h1v4h16v-4Zm-.91-12a1.5 1.5 0 0 1 2.83 0Z"/><path d="M17 8h-3v4h-1v2h1v1h-1v2h1v1h2v-1h2v-2h-2v-1h1.14A2.85 2.85 0 0 0 20 11.15V11a3 3 0 0 0-3-3Zm.14 4H16v-2h1a1 1 0 0 1 1 1c0 .29-.14 1-.84 1Z"/></svg>

<svg id="Ready" xmlns="http://www.w3.org/2000/svg" viewBox="0 0 32 32"><title>Megaicons_work_24_1.8_cp</title><path d="M25.47,3H12A4,4,0,0,0,8,7v9H5V28H27V16H24V8h5V6.5A3.54,3.54,0,0,0,25.47,3ZM10,7a2,2,0,0,1,2-2H22.33A3.34,3.34,0,0,0,22,6.44a2.91,2.91,0,0,0,0,.48V20H10ZM25,18v8H7V18H8v4H24V18ZM24.09,6a1.5,1.5,0,0,1,2.83,0Z"/><path d="M17,8H14l0,4H13v2h1v1H13v2h1v1h2V17h2V15H16V14h1.14A2.85,2.85,0,0,0,20,11.15V11A3,3,0,0,0,17,8Zm.14,4H16V10H17A1,1,0,0,1,18,11C18,11.29,17.86,12,17.16,12Z"/></svg>
